X: 15638
T: Goedkope Tranen
R: waltz
M: 3/4
K: Gmajor
F2 G2 dc|AB BG AB|EF/E/ DE FG|GF GA Bc|
EF FG dc-|cB BG AB|~E3 G Bc|AG- G2 GF:|
G3 A AG|Ad- dG ed|AB- BG AB|AG- GF G/A/B|
G3 A AG|Ad- dG dc|B3 c2B|1 G4 GF:|2 BA AG GF||

